X:1
L:1/8
M:6/8
K:Edor
 E3 B3 | EBE AFD | E3 B3 | dcB AFD |""^variations"" E3 BEB | E2 B AFD | G2 G FGA |1 dAG FED :|2 
 dAG FGA |] Bee fee | aee fed | Bee fee | a2 g fed | Bee fee | aee fed | gfe d2 A | BAG FGA || 
 Bee fee | aee fed | Bee fee | faf def | gag gfe | def g2 d | edc d2 A | BAG FED |]
